X: 27828
T: Moth In The Lantern, The
R: jig
M: 6/8
K: Bminor
|:FBd ~f3|FBd ~e3|FBd ~f3|~e3 ~f3|FBd ~f3|FBd ~e3|fed efg|fdc B3:|
|:FBd ~c3|dcd ~e3|FBd ~c3|dcB =cBA|FBd ~c3|dcd ~e3|fed efg|fdc B3:|
fBB dBB|eAA cAA|fBB dBB|efg efg|fBB dBB|eAA cAA|fed efg|fdc B3|
fBB dBB|eAA cAA|fBB dBB|efg EFG|fBB FBB|eAA EAA|fed efg|fdc B3|

